static/images/icons/advising.svg

<svg width="650" height="650" fill="none" xmlns="http://www.w3.org/2000/svg"><path d="M0 325C0 81.25 81.25 0 325 0s325 81.25 325 325-81.25 325-325 325S0 568.75 0 325z" fill="#266DD3"/><path fill-rule="evenodd" clip-rule="evenodd" d="M463.25 241.25c15.318 0 27.75 12.432 27.75 27.75v166.5c0 15.318-12.432 27.75-27.75 27.75h-277.5c-15.318 0-27.75-12.432-27.75-27.75V269c0-15.318 12.432-27.75 27.75-27.75h69.375V213.5c0-15.318 12.432-27.75 27.75-27.75h83.25c15.318 0 27.75 12.432 27.75 27.75v27.75h69.375zm0 34.688a6.94 6.94 0 00-6.938-6.938H192.688a6.94 6.94 0 00-6.938 6.938v152.625a6.94 6.94 0 006.938 6.937h263.624a6.94 6.94 0 006.938-6.937V275.938zm-124.875 62.437H380v27.75h-41.625v41.625h-27.75v-41.625H269v-27.75h41.625V296.75h27.75v41.625zM359.188 213.5h-69.376a6.94 6.94 0 00-6.937 6.938v20.812h83.25v-20.812a6.94 6.94 0 00-6.937-6.938z" fill="#fff"/></svg>

<svg width="650" height="650" viewBox="0 0 650 650" fill="none" xmlns="http://www.w3.org/2000/svg">
<path d="M0 325C0 81.25 81.25 0 325 0C568.75 0 650 81.25 650 325C650 568.75 568.75 650 325 650C81.25 650 0 568.75 0 325Z" fill="#266DD3"/>
<path fill-rule="evenodd" clip-rule="evenodd" d="M463.25 241.25C478.568 241.25 491 253.682 491 269V435.5C491 450.818 478.568 463.25 463.25 463.25H185.75C170.432 463.25 158 450.818 158 435.5V269C158 253.682 170.432 241.25 185.75 241.25H255.125V213.5C255.125 198.182 267.557 185.75 282.875 185.75H366.125C381.443 185.75 393.875 198.182 393.875 213.5V241.25H463.25ZM463.25 275.938C463.25 272.108 460.142 269 456.312 269H192.688C188.858 269 185.75 272.108 185.75 275.938V428.563C185.75 432.392 188.858 435.5 192.688 435.5H456.312C460.142 435.5 463.25 432.392 463.25 428.563V275.938ZM338.375 338.375H380V366.125H338.375V407.75H310.625V366.125H269V338.375H310.625V296.75H338.375V338.375ZM359.188 213.5H289.812C285.983 213.5 282.875 216.608 282.875 220.438V241.25H366.125V220.438C366.125 216.608 363.017 213.5 359.188 213.5Z" fill="white"/>
</svg>
